X: 4415
T: "BRIDESMAID" SCHOTTISCHE
R: Schottische
%R: shottish
B: James Kerr "Merry Melodies" v.4 p.46 #415
Z: 2016 John Chambers <jc:trillian.mit.edu>
M: C
L: 1/8
K: G
|: !mf!\
d2B2 g2B2 | c>dc>B A>Bc2 | c2A2 a2A2 | B>cB>A G>AB>c |\
d2B2 g2B2 | c>dc>B A>Bc2 | c2A2 a2f2 | g2[g2B2] [g2B2]z2 :|
|: !f!\
f>ga2 a2a2 | g>ag>f e>fg2 | e>fg2 g2g2 | f>gf>e d>ef2 |\
f>ga2 a2a2 | g>ab2 b2b2 | e>fe>d ^c>AB>c | d2f2 d2"_D.C."z2 :|
P: Trio.
[K:=f][K:C]
|: !p!\
e4 e4 | (3dcB (3dcA G3F | E>FG2 A>Bc2 | d>ed>^c d2g2 |\
e4 e4 | (3dcB (3dcA G3^G | A>Bc>A B>cd>B |[1 c2e2 (3cGA (3Bcd :|[2 c2e2 c2z2 |]

%%sep 1 1 500
%%sep 1 1 500

